X: 17009
T: Health To The Ladies
R: jig
M: 6/8
K: Amajor
f|ecA BAF|AFE EFA|Bdc BAB|cBB B2f|
ecA BAF|AFE EFA|Bdc BAB|cAA A2:|
A|cee dff|cee ecA|cee dff|ecA B2A|
cee dff|cee ecA|Bdc BAB|cAA A2:|

